X: 2
T: The Trip To Sligo
R: jig
M: 6/8
L: 1/8
K: Emin
B|E2c BGE|D2d AFD|~E3 BAF|GFE e2f|gfe d^cB|AdF FED|EFG ABc|BGE E2:|B|eBA gfe|dAd fed|eBe gfe|f/2g/2af gfe|f/2g/2af gfe|d>^cd AFD|EFG ABc|BGE E2:|


Tune 397	Setting 13239

